!!!OTL: SCHOENSTER ABENDSTERN
!!!ARE: Europa, Mitteleuropa, Deutschland, Westfalen
!!!SCT: E0613
!!!YEM: Copyright 1995, estate of Helmut Schaffrath.
**kern
*ICvox
*Ivox
*M2/4
*k[]
*a:
=1
{4a
4ee
=2
8.dd
16ccn
4b}
=3
{8.a
16b
16ccn
16b
16ccn
16a
=4
16g#
16a
16b
16g#
4e}
=5
{8dd
8dd
8dd
8dd
=6
8ee
16dd
16ccn
4b}
=7
{8.a
16b
16ccn
16b
16ccn
16a
=8
16g#
16a
16b
16g#
4e}
=9
{4a
4ee
=10
8ffn
16ee
16dd
8ee}
{8dd
=11
8ccn
8a
16ccn
16b
16a
16g#
=12
4a
4r}
==
!!!AGN: Liebes - Lied
!!!ONB: ESAC (Essen Associative Code) Database: ERK1
!!!AMT: simple duple
!!!AIN: vox
!!!EED: Helmut Schaffrath
!!!EEV: 1.0
*-
